app/images/src/icons/phone.svg

<svg width="15" height="16" viewBox="0 0 15 16" fill="none" xmlns="http://www.w3.org/2000/svg">
<path fill-rule="evenodd" clip-rule="evenodd" d="M2.77781 3C2.70426 3.00041 2.63383 3.02981 2.58182 3.08182C2.52981 3.13383 2.50041 3.20426 2.5 3.27781C2.5 8.64781 6.85219 13 12.2222 13C12.2957 12.9996 12.3662 12.9702 12.4182 12.9182C12.4702 12.8662 12.4996 12.7957 12.5 12.7222V10.6625C12.4996 10.5889 12.4702 10.5185 12.4182 10.4665C12.3662 10.4145 12.2957 10.3851 12.2222 10.3847C11.4569 10.3847 10.7097 10.2613 10.0169 10.0325L10.0138 10.0312C9.96544 10.0154 9.91367 10.0133 9.86423 10.0252C9.81479 10.037 9.76961 10.0624 9.73375 10.0984L8.27437 11.5578L8.07188 11.4541C6.34344 10.5684 4.92594 9.15781 4.04594 7.42781L3.94281 7.22563L5.40219 5.76625C5.43925 5.72991 5.46548 5.68399 5.47795 5.63361C5.49042 5.58322 5.48864 5.53037 5.47281 5.48094C5.23901 4.76999 5.12043 4.02622 5.12156 3.27781C5.12115 3.20426 5.09175 3.13383 5.03974 3.08182C4.98773 3.02981 4.9173 3.00041 4.84375 3H2.77781ZM1.875 3.27781C1.87541 3.0385 1.97066 2.8091 2.13988 2.63988C2.3091 2.47066 2.5385 2.37541 2.77781 2.375H4.84375C5.08306 2.37541 5.31246 2.47066 5.48168 2.63988C5.6509 2.8091 5.74615 3.0385 5.74656 3.27781C5.74656 3.98219 5.85906 4.6575 6.06719 5.28719L6.06781 5.28906L6.06844 5.29125C6.11902 5.44995 6.12481 5.61954 6.08516 5.78132C6.04552 5.9431 5.96198 6.09079 5.84375 6.20813L4.70813 7.34406C5.50233 8.8007 6.69947 9.99762 8.15625 10.7916L9.29187 9.65625C9.41024 9.53776 9.55935 9.45468 9.72239 9.41636C9.88543 9.37805 10.0559 9.38602 10.2147 9.43938C10.8626 9.65197 11.5403 9.75999 12.2222 9.75937C12.4615 9.75979 12.6909 9.85504 12.8601 10.0243C13.0293 10.1935 13.1246 10.4229 13.125 10.6622V12.7222C13.1246 12.9615 13.0293 13.1909 12.8601 13.3601C12.6909 13.5293 12.4615 13.6246 12.2222 13.625C6.50688 13.625 1.875 8.99312 1.875 3.27781Z" fill="white"/>
</svg>

<svg width="15" height="16" fill="none" xmlns="http://www.w3.org/2000/svg"><path fill-rule="evenodd" clip-rule="evenodd" d="M2.778 3a.28.28 0 00-.278.278A9.721 9.721 0 0012.222 13a.28.28 0 00.278-.278v-2.06a.28.28 0 00-.278-.277 7.047 7.047 0 01-2.205-.352l-.003-.002a.275.275 0 00-.28.067l-1.46 1.46-.202-.104a9.253 9.253 0 01-4.026-4.026l-.103-.202 1.46-1.46a.28.28 0 00.07-.285 7.018 7.018 0 01-.351-2.203A.28.28 0 004.844 3H2.778zm-.903.278a.904.904 0 01.903-.903h2.066a.904.904 0 01.903.903c0 .704.112 1.38.32 2.01v.001l.001.002a.905.905 0 01-.224.917L4.708 7.344a8.633 8.633 0 003.448 3.448l1.136-1.136a.9.9 0 01.923-.217 6.42 6.42 0 002.007.32.904.904 0 01.903.903v2.06a.904.904 0 01-.903.903c-5.715 0-10.347-4.632-10.347-10.347z" fill="#fff"/></svg>
